X:1
T:Title
%%score { 1 | 2 }
L:1/8
M:3/4
K:C
V:1 treble nm="Grand Piano"
V:2 bass 
V:1
 z2 z2[Q:1/4=78] [EG]2 | [CE][EG] [Ec][EG] [CE][FA] | [EG]4 [CE]2 | %3
 [DF][DF] [DF][B,D] [B,FA][B,FG] | [CEG]4 [CEG]2 | [G,CE][G,EG] [Ec][EG] [Ge][Gc] | A4 A2 | %7
[M:7/8] AGG c[DB]3/2[Fd]3/2 |[M:2/4] [Ec]4 |[M:1/4] E2 |[M:3/4] DE F2 [DF]2 | EF G2 [EG]2 | %12
 [FA][GB] [Gc]2 c2 |[M:5/8] de [Ec]3 |] %14
V:2
 z2 z2 [C,G,]2 | [C,G,][C,G,] [C,G,][C,G,] [C,G,][C,C] | [C,C]4 [C,G,]2 | %3
 [G,,G,][G,,G,] [G,,G,][G,,G,] G,,G,, | C,4 C,2 | C,C, [C,G,][C,C] [C,C][E,C] | [F,CF]4 [F,CF]2 | %7
[M:7/8] [G,CE][G,CE][G,CE] [G,E][G,,G,]3/2[G,,G,]3/2 |[M:2/4] [C,G,]4 |[M:1/4] [C,G,C]2 | %10
[M:3/4] [F,G,B,][E,G,C] [D,G,B,]2 [G,,G,]2 | [C,G,C][D,G,B,] [E,G,C]2 [C,C]2 | %12
 [F,C][F,D] [E,C]2[K:treble] [A,CE]2 |[M:5/8] [G,B,F][G,B,G][K:bass] [C,C]3 |] %14

